usr/share/icons/biglinux-icons-material/scalable/apps/kshutdown.svg

<svg width="24" height="24" viewBox="0 0 24 24" fill="none" xmlns="http://www.w3.org/2000/svg">
<path fill-rule="evenodd" clip-rule="evenodd" d="M9.3775 0.123915C9.50824 0.125307 9.6332 0.108652 9.75239 0.073954C11.3187 -0.0286516 12.8849 -0.0244899 14.451 0.0864444C15.871 0.197086 17.2456 0.505183 18.5748 1.01073C20.7846 1.92048 22.2966 3.49843 23.1109 5.74457C23.5766 7.0969 23.8516 8.4875 23.9357 9.91634C24.0521 11.7106 24.0105 13.5009 23.8107 15.2872C23.6612 16.5427 23.3363 17.7501 22.836 18.9094C21.9081 20.9194 20.4044 22.3058 18.3249 23.0687C16.6398 23.6381 14.9069 23.9378 13.1264 23.968C11.1236 24.0721 9.14087 23.9222 7.17815 23.5183C3.56552 22.7136 1.337 20.5111 0.49263 16.9109C0.134306 15.2903 -0.0281463 13.6499 0.00527377 11.9897C-0.0347169 10.2244 0.152728 8.4841 0.567607 6.76878C1.45278 3.40263 3.58964 1.31674 6.97821 0.511116C7.7678 0.318078 8.56757 0.18901 9.3775 0.123915Z" fill="url(#paint0_radial_0_1)"/>
<path d="M12.75 4.15C12.75 3.73579 12.4142 3.4 12 3.4C11.5858 3.4 11.25 3.73579 11.25 4.15V10.9C11.25 11.3142 11.5858 11.65 12 11.65C12.4142 11.65 12.75 11.3142 12.75 10.9V4.15Z" fill="#FAFAFA"/>
<path d="M16.6011 5.79942C16.4035 5.82147 16.2228 5.92105 16.0986 6.07627C16.037 6.1532 15.9912 6.24152 15.9637 6.33617C15.9363 6.43082 15.9278 6.52995 15.9386 6.62791C15.9495 6.72586 15.9796 6.8207 16.0272 6.90702C16.0747 6.99334 16.1388 7.06943 16.2158 7.13096C17.8173 8.4117 18.7493 10.3494 18.75 12.4C18.75 16.1368 15.7368 19.15 12 19.15C8.2632 19.15 5.25 16.1368 5.25 12.4C5.25563 10.3518 6.19009 8.41827 7.79151 7.14122C7.8686 7.07979 7.93283 7.00378 7.98053 6.91751C8.02822 6.83124 8.05844 6.73642 8.06946 6.63847C8.08048 6.54051 8.07208 6.44135 8.04475 6.34664C8.01741 6.25193 7.97168 6.16355 7.91016 6.08653C7.78614 5.93125 7.60557 5.83154 7.4081 5.8093C7.21062 5.78705 7.01239 5.84409 6.85693 5.96788C4.90014 7.52832 3.75637 9.89427 3.75 12.3971C3.75 12.3981 3.75 12.399 3.75 12.4C3.75 16.9475 7.45254 20.65 12 20.65C16.5475 20.65 20.25 16.9475 20.25 12.4C20.25 12.3995 20.25 12.399 20.25 12.3985C20.2491 9.89343 19.1097 7.52362 17.1533 5.95905C17.0763 5.89742 16.9879 5.8516 16.8931 5.8242C16.7983 5.7968 16.6991 5.78841 16.6011 5.79942Z" fill="#FAFAFA"/>
<defs>
<radialGradient id="paint0_radial_0_1" cx="0" cy="0" r="1" gradientUnits="userSpaceOnUse" gradientTransform="translate(11.9714 -0.106956) rotate(89.9321) scale(24.107)">
<stop stop-color="#FF5555"/>
<stop offset="1" stop-color="#972626"/>
</radialGradient>
</defs>
</svg>

<svg xmlns="http://www.w3.org/2000/svg" width="24" height="24" fill="none"><path fill="url(#a)" fill-rule="evenodd" d="M9.377.124c.131.001.256-.015.375-.05a34.502 34.502 0 0 1 4.699.012c1.42.111 2.795.42 4.124.925 2.21.91 3.722 2.487 4.536 4.734.466 1.352.74 2.743.825 4.171a30.475 30.475 0 0 1-.125 5.371 12.962 12.962 0 0 1-.975 3.622c-.928 2.01-2.432 3.397-4.511 4.16-1.685.57-3.418.869-5.199.899a23.372 23.372 0 0 1-5.948-.45c-3.612-.804-5.841-3.007-6.685-6.607a20.778 20.778 0 0 1-.488-4.921c-.04-1.766.148-3.506.563-5.221C1.453 3.403 3.59 1.317 6.978.51c.79-.193 1.59-.322 2.4-.387Z" clip-rule="evenodd"/><path fill="#FAFAFA" d="M12.75 4.15a.75.75 0 0 0-1.5 0v6.75a.75.75 0 0 0 1.5 0V4.15Z"/><path fill="#FAFAFA" d="M16.601 5.8a.75.75 0 0 0-.385 1.331A6.748 6.748 0 0 1 18.75 12.4 6.739 6.739 0 0 1 12 19.15 6.739 6.739 0 0 1 7.792 7.141a.75.75 0 0 0-.935-1.173 8.252 8.252 0 0 0-3.107 6.43v.002c0 4.548 3.703 8.25 8.25 8.25 4.547 0 8.25-3.702 8.25-8.25v-.002a8.25 8.25 0 0 0-3.097-6.439.75.75 0 0 0-.552-.16Z"/><defs><radialGradient id="a" cx="0" cy="0" r="1" gradientTransform="rotate(89.932 6.04 5.94) scale(24.107)" gradientUnits="userSpaceOnUse"><stop stop-color="#F55"/><stop offset="1" stop-color="#972626"/></radialGradient></defs></svg>
